X:133
T:Pat Cannys
M:2/2
L:1/8
R:Reel
K:D
AD DD E2 DG|AA GA BG GG|AD DD GA EG|AB AG EG GG|
AD DD E2 DG|A3 B AG E2|d3 B3 A|GB AG EG G2:|
d3 g eBdB|AB GA BG GB|d3 g eBdB|AB AG EG GB|
d3 g e2 dB|A3 (a a)g e2|d4 B3A|G2 AG EG G2:|
